svgs/duotone/square-f.svg

<svg xmlns="http://www.w3.org/2000/svg" viewBox="0 0 448 512"><!--! Font Awesome Pro 6.4.2 by @fontawesome - https://fontawesome.com License - https://fontawesome.com/license (Commercial License) Copyright 2023 Fonticons, Inc. --><defs><style>.fa-secondary{opacity:.4}</style></defs><path class="fa-primary" d="M128 152c0-13.3 10.7-24 24-24H296c13.3 0 24 10.7 24 24s-10.7 24-24 24H176v64h88c13.3 0 24 10.7 24 24s-10.7 24-24 24H176v72c0 13.3-10.7 24-24 24s-24-10.7-24-24V264 152z"/><path class="fa-secondary" d="M64 32C28.7 32 0 60.7 0 96V416c0 35.3 28.7 64 64 64H384c35.3 0 64-28.7 64-64V96c0-35.3-28.7-64-64-64H64zm88 96H296c13.3 0 24 10.7 24 24s-10.7 24-24 24H176v64h88c13.3 0 24 10.7 24 24s-10.7 24-24 24H176v72c0 13.3-10.7 24-24 24s-24-10.7-24-24V264 152c0-13.3 10.7-24 24-24z"/></svg>

<svg xmlns="http://www.w3.org/2000/svg" viewBox="0 0 448 512"><!--! Font Awesome Pro 6.0.0-alpha3 by @fontawesome - https://fontawesome.com License - https://fontawesome.com/license (Commercial License) --><defs><style>.fa-secondary{opacity:.4}</style></defs><path class="fa-primary" d="M296 128h-144C138.8 128 128 138.8 128 152v208C128 373.3 138.8 384 152 384s24-10.75 24-24V288h88C277.3 288 288 277.3 288 264S277.3 240 264 240H176v-64h120C309.3 176 320 165.3 320 152S309.3 128 296 128z"/><path class="fa-secondary" d="M384 32H64C28.65 32 0 60.65 0 96v320c0 35.35 28.65 64 64 64h320c35.35 0 64-28.65 64-64V96C448 60.65 419.3 32 384 32zM296 176H176v64h88C277.3 240 288 250.8 288 264S277.3 288 264 288H176v72C176 373.3 165.3 384 152 384S128 373.3 128 360v-208C128 138.8 138.8 128 152 128h144C309.3 128 320 138.8 320 152S309.3 176 296 176z"/></svg>
